X:892
T:Brenda Stubbert's
R:reel
C:Jerry Holland (1955-2009), Cape Breton, Canada
Z:id:hn-reel-892
M:C|
L:1/8
K:Ador
A2BA GAAG | A2Bd eddB | G2BA BGGB | c2BA BGGB |
A2BA GAAG | A2Bd edda | gedB GABd | e2dB eAAG :|
|: ~A2a2 ~A2g2 | Aage ageg | G2BA BGGB | c2BA BGGB |
[1 ~A2a2 ~A2g2 | Aage agea | gedB GABd | e2dB eAAG :|
[2 A2BA GAAG | A2Bd edda | gedB GABd | e2dB eAAG ||

